brandFactory_export/1.Light/Kit_1Light.svg

<?xml version="1.0" encoding="UTF-8"?>
<svg width="24px" height="24px" viewBox="0 0 24 24" version="1.1" xmlns="http://www.w3.org/2000/svg" xmlns:xlink="http://www.w3.org/1999/xlink">
    <title>1.Light/Kit_1Light</title>
    <g id="Symbols" stroke="none" stroke-width="1" fill="none" fill-rule="evenodd">
        <g id="1.Light/Kit_1Light" fill="#5CB615" fill-rule="nonzero">
            <path d="M22.6184874,21.1663866 L22.6184874,7.05210084 C22.6184874,6.76302521 22.3798319,6.52773109 22.087395,6.52773109 L1.53613445,6.52773109 C1.24369748,6.52773109 1.00504202,6.76302521 1.00504202,7.05210084 L1.00504202,21.1663866 C1.00504202,21.4554622 1.24369748,21.6907563 1.53613445,21.6907563 L22.087395,21.6907563 C22.3798319,21.6907563 22.6184874,21.4554622 22.6184874,21.1663866 Z M7.25714286,3.24033613 L7.25714286,5.53277311 L16.3663866,5.53277311 L16.3663866,3.24033613 C16.3663866,3.17983193 16.1848739,3.00840336 15.8352941,3.00840336 L7.78823529,3.00840336 C7.43865546,3.00840336 7.25714286,3.17983193 7.25714286,3.24033613 L7.25714286,3.24033613 Z M22.087395,5.53277311 C22.9344538,5.53277311 23.6235294,6.21512605 23.6235294,7.05210084 L23.6235294,21.1663866 C23.6235294,22.0033613 22.9344538,22.6857143 22.087395,22.6857143 L1.53613445,22.6857143 C0.68907563,22.6857143 0,22.0033613 0,21.1663866 L0,7.05210084 C0,6.21512605 0.68907563,5.53277311 1.53613445,5.53277311 L6.25210084,5.53277311 L6.25210084,3.24033613 C6.25210084,2.5512605 6.92773109,2.01344538 7.78823529,2.01344538 L15.8352941,2.01344538 C16.6957983,2.01344538 17.3714286,2.5512605 17.3714286,3.24033613 L17.3714286,5.53277311 L22.087395,5.53277311 L22.087395,5.53277311 Z M16.3563025,13.0151261 C16.3563025,13.0756303 16.3764706,13.112605 16.3831933,13.1193277 L16.3226891,12.594958 L16.3226891,13.092437 L13.3378151,13.0957983 C13.2033613,13.0957983 13.0756303,13.0420168 12.9815126,12.9512605 C12.887395,12.8571429 12.8336134,12.7327731 12.8336134,12.5983193 L12.8336134,9.65042017 C12.8268908,9.63361345 12.8268908,9.62352941 12.8302521,9.61680672 L10.8067227,9.61680672 L10.7798319,12.5983193 C10.7798319,12.8739496 10.5546218,13.0957983 10.2756303,13.0957983 L7.29411765,13.0991597 C7.27394958,13.102521 7.26722689,13.102521 7.2605042,13.0991597 L7.2605042,15.1092437 L10.2756303,15.1294118 C10.5546218,15.1294118 10.7798319,15.3512605 10.7798319,15.6268908 L10.7831933,18.5747899 C10.7865546,18.5915966 10.7865546,18.6016807 10.7831933,18.605042 L12.8134454,18.605042 L12.8336134,15.6235294 C12.8336134,15.492437 12.887395,15.3647059 12.9815126,15.2739496 C13.0756303,15.1798319 13.2033613,15.1294118 13.3378151,15.1294118 L16.3193277,15.1294118 C16.3361345,15.1226891 16.3462185,15.1226891 16.3529412,15.1260504 L16.3529412,13.0151261 L16.3563025,13.0151261 Z M16.3226891,12.097479 C16.8739496,12.097479 17.3613445,12.5277311 17.3613445,13.0151261 L17.3613445,15.2 C17.3613445,15.687395 16.8773109,16.1176471 16.3226891,16.1176471 L13.8453782,16.1176471 L13.8487395,18.5714286 C13.8487395,19.1260504 13.4218487,19.5966387 12.9210084,19.5966387 L10.712605,19.5966387 C10.2084034,19.5966387 9.78487395,19.1260504 9.78487395,18.5714286 L9.78151261,16.1176471 L7.30084034,16.1210084 C6.7394958,16.1210084 6.26218487,15.7008403 6.26218487,15.2033613 L6.26218487,13.0184874 C6.26218487,12.5210084 6.73613445,12.1008403 7.30084034,12.1008403 L9.77815126,12.097479 L9.77815126,9.64369748 C9.77815126,9.09579832 10.2117647,8.61848739 10.7058824,8.61848739 L12.9142857,8.61848739 C13.4084034,8.61848739 13.8420168,9.09915966 13.8420168,9.64369748 L13.8420168,12.0941176 L16.3226891,12.097479 Z" id="Kit_1Light"></path>
        </g>
    </g>
</svg>

<svg width="24" height="24" viewBox="0 0 24 24" xmlns="http://www.w3.org/2000/svg"><path d="M22.618 21.166V7.052a.529.529 0 00-.53-.524H1.535a.529.529 0 00-.531.524v14.114c0 .29.239.525.531.525h20.551a.529.529 0 00.531-.525zM7.258 3.24v2.293h9.108V3.24c0-.06-.181-.232-.53-.232H7.787c-.35 0-.53.172-.53.232zm14.83 2.293a1.53 1.53 0 011.536 1.52v14.113c0 .837-.69 1.52-1.537 1.52H1.537A1.53 1.53 0 010 21.166V7.052c0-.837.69-1.52 1.536-1.52h4.716V3.24c0-.689.676-1.227 1.536-1.227h8.047c.86 0 1.536.538 1.536 1.227v2.293h4.716zm-5.732 7.482c0 .06.02.098.027.104l-.06-.524v.497l-2.985.004a.496.496 0 01-.504-.497V9.65c-.007-.016-.007-.026-.004-.033h-2.023l-.027 2.981a.5.5 0 01-.504.498l-2.982.003c-.02.004-.027.004-.033 0v2.01l3.015.02a.5.5 0 01.504.498l.003 2.948c.004.017.004.027 0 .03h2.03l.02-2.981a.5.5 0 01.504-.494h2.982c.017-.007.027-.007.034-.004v-2.11h.003zm-.033-.918c.55 0 1.038.43 1.038.918V15.2c0 .487-.484.918-1.038.918h-2.478l.004 2.453c0 .555-.427 1.026-.928 1.026h-2.208c-.505 0-.928-.47-.928-1.026l-.003-2.453-2.481.003c-.562 0-1.039-.42-1.039-.918v-2.185c0-.497.474-.917 1.039-.917l2.477-.004V9.644c0-.548.434-1.026.928-1.026h2.208c.494 0 .928.481.928 1.026v2.45l2.48.003z" fill="#5CB615" fill-rule="nonzero"/></svg>
